packages/kaspersky-hexa-ui-icons/src/iconsSVGs/24/Structure.svg

<svg xmlns="http://www.w3.org/2000/svg" width="24" height="24" fill="none" viewBox="0 0 24 24"><path fill="#000" fill-rule="evenodd" d="M8 4c0-1.1046.8954-2 2-2h4c1.1046 0 2 .8954 2 2v3c0 1.1046-.8954 2-2 2h-1v2h5c.5523 0 1 .4477 1 1v3h1c1.1046 0 2 .8954 2 2v3c0 1.1046-.8954 2-2 2h-4c-1.1046 0-2-.8954-2-2v-3c0-1.1046.8954-2 2-2h1v-2H7v2h1c1.1046 0 2 .8954 2 2v3c0 1.1046-.8954 2-2 2H4c-1.1046 0-2-.8954-2-2v-3c0-1.1046.8954-2 2-2h1v-3c0-.5523.4477-1 1-1h5V9h-1c-1.1046 0-2-.8954-2-2zm6 0h-4v3h4zM4 20v-3h4v3zm12 0v-3h4v3z"/></svg>

<svg width="24" height="24" viewBox="0 0 24 24" fill="none" xmlns="http://www.w3.org/2000/svg">
<path fill-rule="evenodd" clip-rule="evenodd" d="M8 4C8 2.89543 8.89543 2 10 2H14C15.1046 2 16 2.89543 16 4V7C16 8.10457 15.1046 9 14 9H13V11H18C18.5523 11 19 11.4477 19 12V15H20C21.1046 15 22 15.8954 22 17V20C22 21.1046 21.1046 22 20 22H16C14.8954 22 14 21.1046 14 20V17C14 15.8954 14.8954 15 16 15H17V13H7V15H8C9.10457 15 10 15.8954 10 17V20C10 21.1046 9.10457 22 8 22H4C2.89543 22 2 21.1046 2 20V17C2 15.8954 2.89543 15 4 15H5V12C5 11.4477 5.44772 11 6 11H11V9H10C8.89543 9 8 8.10457 8 7V4ZM14 4H10V7H14V4ZM4 20V17H8V20H4ZM16 20V17H20V20H16Z" fill="black"/>
</svg>
